assets/icons/qvision/receipt_long.svg

<svg xmlns="http://www.w3.org/2000/svg" enable-background="new 0 0 24 24" height="24" viewBox="0 0 24 24" width="24"><path d="M0,0h24v24H0V0z" fill="none"/><g><path d="M19.5,3.5L18,2l-1.5,1.5L15,2l-1.5,1.5L12,2l-1.5,1.5L9,2L7.5,3.5L6,2v14H3v3c0,1.66,1.34,3,3,3h12c1.66,0,3-1.34,3-3V2 L19.5,3.5z M19,19c0,0.55-0.45,1-1,1s-1-0.45-1-1v-3H8V5h11V19z"/><rect height="2" width="6" x="9" y="7"/><rect height="2" width="2" x="16" y="7"/><rect height="2" width="6" x="9" y="10"/><rect height="2" width="2" x="16" y="10"/></g></svg>

<svg width="24" height="24" viewBox="0 0 24 24" fill="none" xmlns="http://www.w3.org/2000/svg">
<g clip-path="url(#clip0_147_3696)">
<path d="M19.5 3.5L18 2L16.5 3.5L15 2L13.5 3.5L12 2L10.5 3.5L9 2L7.5 3.5L6 2V16H3V19C3 20.66 4.34 22 6 22H18C19.66 22 21 20.66 21 19V2L19.5 3.5ZM19 19C19 19.55 18.55 20 18 20C17.45 20 17 19.55 17 19V16H8V5H19V19Z" fill="#323232"/>
<path d="M15 7H9V9H15V7Z" fill="#323232"/>
<path d="M18 7H16V9H18V7Z" fill="#323232"/>
<path d="M15 10H9V12H15V10Z" fill="#323232"/>
<path d="M18 10H16V12H18V10Z" fill="#323232"/>
</g>
<defs>
<clipPath id="clip0_147_3696">
<rect width="24" height="24" fill="white"/>
</clipPath>
</defs>
</svg>
